X:1
T:The Sporting Cowboy
M:2/4
L:1/8
K:G
 G/2| B2 G3/2 G/2| A G2 E| D3/2 D/2 E B,/2 D/2-| D2 z z/2 G/2| c3/2 c/2 cA|\
A/2-B/2 B2 A| G3/2 G/2 FG| A2 z2| z2 z z| B/2 B d/2- dB| A G2 G| B A/2 G/2- GE|\
 D2 z z/2 A/2| B2 G3/2 G/2| A G2 E| DD E/2 F3/2| G2 z2| z2 z z/2||\


